X:1
T:Title
%%score ( 1 2 ) ( 3 4 ) ( 5 6 ) ( 7 8 )
L:1/8
Q:1/4=120
M:2/2
K:C
V:1 treble nm="Voice"
V:2 treble 
V:3 treble nm="Voice"
V:4 treble 
V:5 treble nm="Voice"
V:6 treble 
V:7 treble nm="Voice"
V:8 treble 
V:1
 x8 | x16 | x16 | x16 | x16 | x16 |[M:2/2] x8 | x16 | x16 | x8 | x16 |[M:2/2] x16 | x16 | x16 | %14
 x16 | x16 | x16 | x8 | x16 | x16 | x16 | x16 | x14 ||[K:F] F4 c8 B4 | (c2 B2) A2 G2 A4 G4 | %25
 A4 G2 F2 A4 G4 | F4 c8 B4 | c2 BA G8 c4 | B8 A6 A2 | G8 z4 G4 | G6 G2 G8- | G4 c4 B4 B4 | %32
 A8 F6 G2 | A4 G4 G8 | G4 c8 B4 |!ped! c4 G8 G4 | E4 G4 A8- | A8 G8 | G6 F2 E2 D2 C4 | %39
 c4 x2 B2 A2 G2 F4- | F4 A4 A4 G4 |!ped! B4 B4 A8 | c4 x2 B2 A2 G2 F4- | F4 F4 F6 G2 | A12 G4 | %45
 B4 B4 A4 F4- | F2 G2 A2 B2 c8- | c4 c4 B8 | A8 G8 | A4 A4 G4 x4 | z16 | F6 G2 A2 B2 c2 BA | %52
 G8 G4 c4- | c4 =B4 c8 | c6 B2 A2 G2 F4- | F4 F4 F4 E4 | F4 A4 G4 B4 | z16 | F4 x4 G2 A2 B2 c2 BA | %59
 G8 G4 c4- | c4 =B4 c8 | c6 B2 A2 G2 F4- | F4 F4 F4 E4 | x16 | x16 | x8 |] %66
V:2
 x8 | x16 | x16 | x16 | x16 | x16 |[M:2/2] x8 | x16 | x16 | x8 | x16 |[M:2/2] x16 | x16 | x16 | %14
 x16 | x16 | x16 | x8 | x16 | x16 | x16 | x16 | x14 ||[K:F] x16 | x16 | x16 | x16 | x16 | x16 | %29
 x16 | x16 | x16 | x16 | x16 | x16 | x16 | x16 | x16 | x16 | x16 | x16 | x16 | x16 | x16 | x16 | %45
 x16 | x16 | x16 | x16 | x16 | A8 x8 | x16 | x16 | x16 | x16 | x16 | x16 | A8 x8 | x18 | x16 | %60
 x16 | x16 | x16 | x16 | x16 | x8 |] %66
V:3
 x8 | x16 | x16 | x16 | x16 | x16 |[M:2/2] x8 | x16 | x16 | x8 | x16 |[M:2/2] x16 | x16 | x16 | %14
 x16 | x16 | x16 | x8 | x16 | x16 | x16 | x16 | x14 ||[K:F] F4 F4 D6 D2 | z16 | z4 F8 E4 | %26
 F4 F4 D6!ped! D2 | E4 E8 C4 | D2 E2 F2 G2 F8- | F4 E4 D6 D2 | E4 E4 E6 E2 | E4 A4 D4 G4 | %32
 C8 z4!ped! =F4- | F4 E4 D4 D4 | E4 D2 C2 D8 |!mp! C8 z4 G4- | G4 E4 F4 E4 | =F6 E2 D8 | %38
!ped! E4 G6 F2 E2 D2 | C4 E4 F4 C4 | z4 F4 E6 E2 |!ped! F4 G4 C8 | z16 | D2 C2 B,8 A,4 | %44
 A,4 x2 B,2 C4 C4 | D4 E4 F8 | z4 C4 x2 D2 E2 F2 | G4 E4 D8 | C4 F8 E4 | F4 F4 E4 D4 | z16 | z16 | %52
 E2 F2 G4 E4 G4- | G2 FE D4 E8 | z16 | D4 D4 C8 | C4 F4 E4 D4 | z16 | z18 | E2 F2 G4 E4 G4- | %60
 G2 FE D4 E8 | z16 | D4 D4 C8 | C4 C8 D4- | D4 C4 B,8- | B,4 A,2 G,2 |] %66
V:4
 x8 | x16 | x16 | x16 | x16 | x16 |[M:2/2] x8 | x16 | x16 | x8 | x16 |[M:2/2] x16 | x16 | x16 | %14
 x16 | x16 | x16 | x8 | x16 | x16 | x16 | x16 | x14 ||[K:F] x16 | C8 x8 | x16 | x16 | x16 | x16 | %29
 x16 | x16 | x16 | x16 | x16 | x16 | x16 | x16 | x16 | x16 | x16 | x16 | x16 | x8 F6 E2 | x16 | %44
 x16 | x16 | x16 | x16 | x16 | x16 | F8 x8 | x8 C6 D2 | x16 | x16 | x8 F6 E2 | x16 | x16 | F8 x8 | %58
 x10 C6 D2 | x16 | x16 | x8 F6 E2 | x16 | x16 | x16 | x8 |] %66
V:5
 x8 | x16 | x16 | x16 | x16 | x16 |[M:2/2] x8 | x16 | x16 | x8 | x16 |[M:2/2] x16 | x16 | x16 | %14
 x16 | x16 | x16 | x8 | x16 | x16 | x16 | x16 | x14 ||[K:F] A4 A4 G4 x2 G2 | c8 z4 c4- | %25
 c4 B4 c4 x2 B2 | A4!ped! A4 G6 G2 | c8 z4 f4- | f4 d4 c8 | =B4 c8 B4 | z16 | z4 f8 e4 | %32
 f6 e2 d4 d4 | c8 G4!p! g4- | g4 f4 g6 f2 | e4 e4 d8 |!ped! c4 c8 c4 | c4 c2 c4 =BA B4 | c8 g6 f2 | %39
 e2 d2 c8 A4 | A6 B2 c4 c4 |!ped! d4 e4 f4 c4- | c2 B2 A2 G2 F4 A4 | B2 c2 d4 c4 f4- | %44
 f4 x4 e4 e4 | f4 g4 c8 | z16 | e2 f2 g8 f4 | f4 c4 c8 | z16 | z4 A4 G4 B4 | A8 z4 (c4 | %52
 c2) d2 e2 f2 g4 e4 | d8 c4 c4- | c2 !tenuto!B2 A2 G2 F2 G2 A4 | B6 A2 G8 | z16 | z4 A4 G4 B4 | %58
 A8 x2 z4 (c4 | c2) d2 e2 f2 g4 e4 | d8 c4 c4- | c2 B2 A2 G2 F2 G2 A4 | B6 A2 G8 | F6 G2 A8 | %64
 x4 c4 d8 | z/ x15/2 |] %66
V:6
 x8 | x16 | x16 | x16 | x16 | x16 |[M:2/2] x8 | x16 | x16 | x8 | x16 |[M:2/2] x16 | x16 | x16 | %14
 x16 | x16 | x16 | x8 | x16 | x16 | x16 | x16 | x14 ||[K:F] x16 | x16 | x16 | x16 | x16 | x16 | %29
 x16 | c8 x8 | x16 | x16 | x16 | x16 | x16 | x16 | x16 | x16 | x16 | x16 | x16 | x16 | x16 | x16 | %45
 x16 | x8 c4 x2 d2 | x16 | x16 | c8 x8 | x16 | x16 | x16 | x16 | x16 | x16 | F8 x8 | x16 | x18 | %59
 x16 | x16 | x16 | x16 | x16 | x16 | x8 |] %66
V:7
 z8 | A8 F8- | F4 F4 F6 G2 | A4 B4 c6 c2 |!p! A4 A8 G4 | A4 G2 F2 A4 G4 |[M:2/2] z8 | D8 C8 | %8
 F4 F8 E4 | z8 | z4 F8 E4 |[M:2/2] c8 A8 | F6 G2 A4 A4 | B8 A6 G2 | F8 G8 | F8 z4 c4- | %16
 c4 B4 c6 B2 | c8 | d8 B8 | G4 G4 d6 c2 | B4 B4 A8 | z4 d8 c4 | d4 B4 A4 A2 || %23
[K:F][K:bass] F,8 x8 | z4 F,8 E,4 | F,4!ped! D,4 C,6 C,2 | F,8 x8 | z4 C8 A,4 | B,8 F,8 | %29
 G,12 G,4 | C,4 C4 C6 C2 | C4 A,4 B,4 G,4 |!ped! F,8 x8 | z4!p! C8 =B,4 | C4 A,4 G,8 | %35
!ped! C,4 C8 =B,4 | C6 B,2 A,6 G,2 | F,4 F,4 G,8 |!ped! C,8 z4 C4- | C2 B,2 A,2 G,2 F,4 F,4 | %40
 D,2 E,2 F,2 G,2 x4 C4 |!ped! B,4 G,4 F,8 | z4 F,6 E,2 D,2 C,2 | B,,4 B,,4 x6 E,2 | %44
 D,2 E,2 F,2 G,2 A,4 C4 | B,4 G,4 F,8 | F,6 G,2 A,2 B,2 C4- | C4 C4 G,4 B,4 | F,2 G,2 A,2 B,2 C8 | %49
 F,8 x8 | z4 F,4 E,4 D,4 | F,4 F,6 G,2 A,2 B,2 | C12 C4 | G,8 C,8 |!ped! z4 F,6 E,2 D,2 C,2 | %55
 B,,4 B,,4 C,8 | F,8 x8 |!ped! z4 F,4 E,4 D,4 | F,4 F,6 x2 G,2 A,2 B,2 | C12!ped! C4 | G,8 C,8 | %61
 z4 F,4 x2 E,2 D,2 C,2 | B,,4 B,,4 C,8 | F,4 F,6 E,2!ped! D,2 C,2 | B,,4 A,,4 B,,8 | z/ x15/2 |] %66
V:8
 c8 | x16 | x16 | x16 | x16 | x16 |[M:2/2] F8 | x16 | x16 | F8 | x16 |[M:2/2] x16 | x16 | x16 | %14
 x16 | x16 | x16 | x8 | x16 | x16 | x16 | x16 | x14 ||[K:F][K:bass] z16 | x16 | x16 | z16 | x16 | %28
 x16 | x16 | x16 | x16 | z16 | x16 | x16 | x16 | x16 | x16 | x16 | x16 | x16 | x16 | x16 | x16 | %44
 x16 | x16 | x16 | x16 | x16 | z16 | x16 | x16 | x16 | x16 | x16 | x16 | z16 | x16 | x18 | x16 | %60
 x16 | x16 | x16 | x16 | x16 | x8 |] %66

